X: 481
T: Bûselik Seyir
C: Erol Bingöl
O: Turkey
F: http://compmusic.upf.edu/node/140
N: buselik--seyir--sofyan--2--erol_bingol
N: makam= buselik
N: form= seyir
N: usul= sofyan = 4/4
M: 4/4
L: 1/16
K: C    
Q: 1/4=120
%%MIDI tuningsystem comma53
G4c2B2c2  | d4e6  | c2B2A4^G2  | A8-A2  | G4c2B2c2  | \
w:   |   |   |   |   | 
d4e6  | f2e2d2c2d2  | 
w:   |   | 
e8z2  | e2f2^g4a2  | b2c'2b4a2  | a2^g2f4e2  | d8-d2  | \
w:   |   |   |   |   | 
f4e2d2c2  | d4e6  | 
w:   |   | 
c2B2A2^G2B2  | A8-A2  | |


